public/images/sponsors/developers-leaderboard.svg

<svg xmlns="http://www.w3.org/2000/svg" width="860" height="200" viewBox="0 0 860 200">
  <g fill="none" fill-rule="evenodd">
    <circle cx="100" cy="100" r="100" fill="#FF4F61"/>
    <path fill="#000" fill-rule="nonzero" d="M72.9446408 131.453401L72.9446408 113.072209 47.0549923 102.043493 47.0549923 101.269548 72.9446408 90.7729201 72.9446408 71.8596405 23.0215827 96.4807641 23.0215827 107.315993 72.9446408 131.453401zM96.7338084 143.884892L120.864915 58.9928058 102.986403 58.9928058 78.8552964 143.884892 96.7338084 143.884892zM126.335935 131.453401L176.258993 107.315993 176.258993 96.4807641 126.335935 71.8596405 126.335935 90.7729201 152.225583 101.269548 152.225583 102.043493 126.335935 113.072209 126.335935 131.453401zM245.210938 85C262.125 85 272.085938 74.4921875 272.085938 56.6015625 272.085938 38.7109375 262.125 28.6328125 245.210938 28.6328125L223.6875 28.6328125 223.6875 85 245.210938 85zM243.804688 75.234375L235.484375 75.234375 235.484375 38.359375 243.804688 38.359375C254.195312 38.359375 260.054688 44.84375 260.054688 56.640625 260.054688 68.828125 254.351562 75.234375 243.804688 75.234375zM300.828125 85.8984375C311.179688 85.8984375 318.679688 80.390625 319.929688 72.1875L309.460938 72.1875C308.40625 75.390625 305.203125 77.4609375 301.023438 77.4609375 295.203125 77.4609375 291.414062 73.359375 291.414062 67.3828125L291.414062 66.6796875 320.28125 66.6796875 320.28125 63.203125C320.28125 50.46875 312.585938 42.2265625 300.398438 42.2265625 288.015625 42.2265625 280.203125 50.8984375 280.203125 64.2578125 280.203125 77.65625 287.9375 85.8984375 300.828125 85.8984375zM309.304688 59.6875L291.53125 59.6875C291.921875 54.453125 295.515625 50.6640625 300.515625 50.6640625 305.59375 50.6640625 309.070312 54.3359375 309.304688 59.6875zM352.460938 85L366.835938 43.125 354.921875 43.125 346.25 74.921875 346.015625 74.921875 337.304688 43.125 325.078125 43.125 339.570312 85 352.460938 85zM391.710938 85.8984375C402.0625 85.8984375 409.5625 80.390625 410.8125 72.1875L400.34375 72.1875C399.289062 75.390625 396.085938 77.4609375 391.90625 77.4609375 386.085938 77.4609375 382.296875 73.359375 382.296875 67.3828125L382.296875 66.6796875 411.164062 66.6796875 411.164062 63.203125C411.164062 50.46875 403.46875 42.2265625 391.28125 42.2265625 378.898438 42.2265625 371.085938 50.8984375 371.085938 64.2578125 371.085938 77.65625 378.820312 85.8984375 391.710938 85.8984375zM400.1875 59.6875L382.414062 59.6875C382.804688 54.453125 386.398438 50.6640625 391.398438 50.6640625 396.476562 50.6640625 399.953125 54.3359375 400.1875 59.6875zM431.703125 85L431.703125 28.6328125 420.296875 28.6328125 420.296875 85 431.703125 85zM461.617188 85.8984375C474.273438 85.8984375 482.359375 77.8125 482.359375 64.0234375 482.359375 50.4296875 474.15625 42.2265625 461.617188 42.2265625 449.078125 42.2265625 440.875 50.46875 440.875 64.0234375 440.875 77.7734375 448.960938 85.8984375 461.617188 85.8984375zM461.617188 77.1875C455.992188 77.1875 452.4375 72.4609375 452.4375 64.0625 452.4375 55.7421875 456.070312 50.9375 461.617188 50.9375 467.164062 50.9375 470.757812 55.7421875 470.757812 64.0625 470.757812 72.4609375 467.203125 77.1875 461.617188 77.1875zM502.625 98.671875L502.625 77.96875 502.859375 77.96875C505.085938 82.6953125 509.773438 85.6640625 515.867188 85.6640625 526.335938 85.6640625 532.820312 77.5390625 532.820312 64.0625 532.820312 50.546875 526.296875 42.4609375 515.671875 42.4609375 509.617188 42.4609375 504.96875 45.5078125 502.703125 50.4296875L502.46875 50.4296875 502.46875 43.125 491.21875 43.125 491.21875 98.671875 502.625 98.671875zM511.84375 76.484375C506.257812 76.484375 502.585938 71.640625 502.585938 64.0625 502.585938 56.5625 506.257812 51.6015625 511.84375 51.6015625 517.546875 51.6015625 521.140625 56.484375 521.140625 64.0625 521.140625 71.6796875 517.546875 76.484375 511.84375 76.484375zM560.78125 85.8984375C571.132812 85.8984375 578.632812 80.390625 579.882812 72.1875L569.414062 72.1875C568.359375 75.390625 565.15625 77.4609375 560.976562 77.4609375 555.15625 77.4609375 551.367188 73.359375 551.367188 67.3828125L551.367188 66.6796875 580.234375 66.6796875 580.234375 63.203125C580.234375 50.46875 572.539062 42.2265625 560.351562 42.2265625 547.96875 42.2265625 540.15625 50.8984375 540.15625 64.2578125 540.15625 77.65625 547.890625 85.8984375 560.78125 85.8984375zM569.257812 59.6875L551.484375 59.6875C551.875 54.453125 555.46875 50.6640625 560.46875 50.6640625 565.546875 50.6640625 569.023438 54.3359375 569.257812 59.6875zM600.5 85L600.5 61.6015625C600.5 55.703125 603.78125 52.265625 609.40625 52.265625 611.046875 52.265625 612.609375 52.5390625 613.546875 52.9296875L613.546875 42.890625C612.765625 42.65625 611.632812 42.4609375 610.304688 42.4609375 605.382812 42.4609375 601.828125 45.3515625 600.34375 50.6640625L600.109375 50.6640625 600.109375 43.125 589.09375 43.125 589.09375 85 600.5 85zM638.421875 85.8984375C649.203125 85.8984375 656.742188 80.46875 656.742188 72.2265625 656.742188 66.09375 653.148438 62.65625 644.398438 60.8203125L637.25 59.296875C633.03125 58.3984375 631.46875 56.953125 631.46875 54.8046875 631.46875 52.03125 634.085938 50.234375 638.03125 50.234375 642.25 50.234375 644.789062 52.5390625 645.140625 55.9375L655.648438 55.9375C655.414062 47.734375 648.773438 42.2265625 638.03125 42.2265625 627.367188 42.2265625 620.492188 47.4609375 620.492188 55.4296875 620.492188 61.71875 624.59375 65.78125 632.679688 67.5L639.828125 68.984375C643.929688 69.921875 645.375 71.171875 645.375 73.3984375 645.375 76.1328125 642.71875 77.890625 638.421875 77.890625 633.890625 77.890625 631.273438 75.9375 630.570312 72.265625L619.4375 72.265625C620.179688 80.5078125 626.859375 85.8984375 638.421875 85.8984375zM260.132812 165L260.132812 155.234375 235.484375 155.234375 235.484375 108.632812 223.6875 108.632812 223.6875 165 260.132812 165zM287.664062 165.898438C298.015625 165.898438 305.515625 160.390625 306.765625 152.1875L296.296875 152.1875C295.242188 155.390625 292.039062 157.460938 287.859375 157.460938 282.039062 157.460938 278.25 153.359375 278.25 147.382812L278.25 146.679688 307.117188 146.679688 307.117188 143.203125C307.117188 130.46875 299.421875 122.226562 287.234375 122.226562 274.851562 122.226562 267.039062 130.898438 267.039062 144.257812 267.039062 157.65625 274.773438 165.898438 287.664062 165.898438zM296.140625 139.6875L278.367188 139.6875C278.757812 134.453125 282.351562 130.664062 287.351562 130.664062 292.429688 130.664062 295.90625 134.335938 296.140625 139.6875zM328.398438 165.664062C333.632812 165.664062 338.828125 163.046875 341.171875 158.59375L341.40625 158.59375 341.40625 165 352.421875 165 352.421875 136.210938C352.421875 127.773438 345.429688 122.226562 334.6875 122.226562 323.59375 122.226562 316.679688 127.8125 316.25 135.9375L326.679688 135.9375C327.226562 132.851562 329.921875 130.742188 334.179688 130.742188 338.476562 130.742188 341.210938 133.007812 341.210938 136.914062L341.210938 139.6875 330.664062 140.3125C320.234375 140.9375 314.375 145.351562 314.375 152.96875 314.375 160.507812 320.429688 165.664062 328.398438 165.664062zM332.148438 157.421875C328.28125 157.421875 325.703125 155.46875 325.703125 152.34375 325.703125 149.375 328.125 147.460938 332.382812 147.148438L341.210938 146.601562 341.210938 149.648438C341.210938 154.179688 337.109375 157.421875 332.148438 157.421875zM378.3125 165.664062C384.484375 165.664062 389.328125 162.421875 391.359375 157.8125L391.554688 157.8125 391.554688 165 402.804688 165 402.804688 108.632812 391.398438 108.632812 391.398438 130.3125 391.164062 130.3125C389.132812 125.664062 384.445312 122.460938 378.390625 122.460938 367.882812 122.460938 361.242188 130.703125 361.242188 143.984375 361.242188 157.382812 367.84375 165.664062 378.3125 165.664062zM382.179688 156.484375C376.4375 156.484375 372.921875 151.757812 372.921875 144.0625 372.921875 136.40625 376.4375 131.601562 382.179688 131.601562 387.84375 131.601562 391.476562 136.445312 391.476562 144.0625 391.476562 151.71875 387.84375 156.484375 382.179688 156.484375zM432.523438 165.898438C442.875 165.898438 450.375 160.390625 451.625 152.1875L441.15625 152.1875C440.101562 155.390625 436.898438 157.460938 432.71875 157.460938 426.898438 157.460938 423.109375 153.359375 423.109375 147.382812L423.109375 146.679688 451.976562 146.679688 451.976562 143.203125C451.976562 130.46875 444.28125 122.226562 432.09375 122.226562 419.710938 122.226562 411.898438 130.898438 411.898438 144.257812 411.898438 157.65625 419.632812 165.898438 432.523438 165.898438zM441 139.6875L423.226562 139.6875C423.617188 134.453125 427.210938 130.664062 432.210938 130.664062 437.289062 130.664062 440.765625 134.335938 441 139.6875zM472.242188 165L472.242188 141.601562C472.242188 135.703125 475.523438 132.265625 481.148438 132.265625 482.789062 132.265625 484.351562 132.539062 485.289062 132.929688L485.289062 122.890625C484.507812 122.65625 483.375 122.460938 482.046875 122.460938 477.125 122.460938 473.570312 125.351562 472.085938 130.664062L471.851562 130.664062 471.851562 123.125 460.835938 123.125 460.835938 165 472.242188 165zM517.820312 165.664062C528.367188 165.664062 534.8125 157.539062 534.8125 144.0625 534.8125 130.546875 528.328125 122.460938 517.78125 122.460938 511.804688 122.460938 507.15625 125.429688 504.851562 130.390625L504.617188 130.390625 504.617188 108.632812 493.210938 108.632812 493.210938 165 504.460938 165 504.460938 157.8125 504.695312 157.8125C507 162.695312 511.6875 165.664062 517.820312 165.664062zM513.875 156.484375C508.328125 156.484375 504.578125 151.640625 504.578125 144.0625 504.578125 136.5625 508.367188 131.601562 513.875 131.601562 519.539062 131.601562 523.132812 136.445312 523.132812 144.0625 523.132812 151.71875 519.578125 156.484375 513.875 156.484375zM562.929688 165.898438C575.585938 165.898438 583.671875 157.8125 583.671875 144.023438 583.671875 130.429688 575.46875 122.226562 562.929688 122.226562 550.390625 122.226562 542.1875 130.46875 542.1875 144.023438 542.1875 157.773438 550.273438 165.898438 562.929688 165.898438zM562.929688 157.1875C557.304688 157.1875 553.75 152.460938 553.75 144.0625 553.75 135.742188 557.382812 130.9375 562.929688 130.9375 568.476562 130.9375 572.070312 135.742188 572.070312 144.0625 572.070312 152.460938 568.515625 157.1875 562.929688 157.1875zM604.953125 165.664062C610.1875 165.664062 615.382812 163.046875 617.726562 158.59375L617.960938 158.59375 617.960938 165 628.976562 165 628.976562 136.210938C628.976562 127.773438 621.984375 122.226562 611.242188 122.226562 600.148438 122.226562 593.234375 127.8125 592.804688 135.9375L603.234375 135.9375C603.78125 132.851562 606.476562 130.742188 610.734375 130.742188 615.03125 130.742188 617.765625 133.007812 617.765625 136.914062L617.765625 139.6875 607.21875 140.3125C596.789062 140.9375 590.929688 145.351562 590.929688 152.96875 590.929688 160.507812 596.984375 165.664062 604.953125 165.664062zM608.703125 157.421875C604.835938 157.421875 602.257812 155.46875 602.257812 152.34375 602.257812 149.375 604.679688 147.460938 608.9375 147.148438L617.765625 146.601562 617.765625 149.648438C617.765625 154.179688 613.664062 157.421875 608.703125 157.421875zM650.726562 165L650.726562 141.601562C650.726562 135.703125 654.007812 132.265625 659.632812 132.265625 661.273438 132.265625 662.835938 132.539062 663.773438 132.929688L663.773438 122.890625C662.992188 122.65625 661.859375 122.460938 660.53125 122.460938 655.609375 122.460938 652.054688 125.351562 650.570312 130.664062L650.335938 130.664062 650.335938 123.125 639.320312 123.125 639.320312 165 650.726562 165zM685.601562 165.664062C691.773438 165.664062 696.617188 162.421875 698.648438 157.8125L698.84375 157.8125 698.84375 165 710.09375 165 710.09375 108.632812 698.6875 108.632812 698.6875 130.3125 698.453125 130.3125C696.421875 125.664062 691.734375 122.460938 685.679688 122.460938 675.171875 122.460938 668.53125 130.703125 668.53125 143.984375 668.53125 157.382812 675.132812 165.664062 685.601562 165.664062zM689.46875 156.484375C683.726562 156.484375 680.210938 151.757812 680.210938 144.0625 680.210938 136.40625 683.726562 131.601562 689.46875 131.601562 695.132812 131.601562 698.765625 136.445312 698.765625 144.0625 698.765625 151.71875 695.132812 156.484375 689.46875 156.484375z"/>
  </g>
</svg>

<svg xmlns="http://www.w3.org/2000/svg" width="860" height="200"><defs/><g fill="none" fill-rule="evenodd"><circle cx="100" cy="100" r="100" fill="#FF4F61"/><path fill="#000" fill-rule="nonzero" d="M72.9446408 131.453401v-18.381192l-25.8896485-11.028716v-.773945l25.8896485-10.4966279V71.8596405L23.0215827 96.4807641v10.8352289l49.9230581 24.137408zm23.7891676 12.431491l24.1311066-84.8920862h-17.878512L78.8552964 143.884892h17.878512zm29.6021266-12.431491l49.923058-24.137408V96.4807641l-49.923058-24.6211236v18.9132796l25.889648 10.4966279v.773945l-25.889648 11.028716v18.381192zM245.210938 85c16.914062 0 26.875-10.5078125 26.875-28.3984375s-9.960938-27.96875-26.875-27.96875H223.6875V85h21.523438zm-1.40625-9.765625h-8.320313v-36.875h8.320313c10.390624 0 16.25 6.484375 16.25 18.28125 0 12.1875-5.703126 18.59375-16.25 18.59375zm57.023437 10.6640625c10.351563 0 17.851563-5.5078125 19.101563-13.7109375h-10.46875c-1.054688 3.203125-4.257813 5.2734375-8.4375 5.2734375-5.820313 0-9.609376-4.1015625-9.609376-10.078125v-.703125h28.867188V63.203125c0-12.734375-7.695312-20.9765625-19.882812-20.9765625-12.382813 0-20.195313 8.671875-20.195313 22.03125 0 13.3984375 7.734375 21.640625 20.625 21.640625zM309.304688 59.6875H291.53125c.390625-5.234375 3.984375-9.0234375 8.984375-9.0234375 5.078125 0 8.554687 3.671875 8.789063 9.0234375zM352.460938 85l14.375-41.875h-11.914063L346.25 74.921875h-.234375L337.304688 43.125h-12.226563L339.570312 85h12.890626zm39.25.8984375c10.351562 0 17.851562-5.5078125 19.101562-13.7109375h-10.46875c-1.054688 3.203125-4.257812 5.2734375-8.4375 5.2734375-5.820312 0-9.609375-4.1015625-9.609375-10.078125v-.703125h28.867187V63.203125c0-12.734375-7.695312-20.9765625-19.882812-20.9765625-12.382812 0-20.195312 8.671875-20.195312 22.03125 0 13.3984375 7.734374 21.640625 20.625 21.640625zM400.1875 59.6875h-17.773438c.390626-5.234375 3.984376-9.0234375 8.984376-9.0234375 5.078124 0 8.554687 3.671875 8.789062 9.0234375zM431.703125 85V28.6328125h-11.40625V85h11.40625zm29.914063.8984375c12.65625 0 20.742187-8.0859375 20.742187-21.875 0-13.59375-8.203125-21.796875-20.742187-21.796875-12.539063 0-20.742188 8.2421875-20.742188 21.796875 0 13.75 8.085938 21.875 20.742188 21.875zm0-8.7109375c-5.625 0-9.179688-4.7265625-9.179688-13.125 0-8.3203125 3.632812-13.125 9.179688-13.125 5.546874 0 9.140624 4.8046875 9.140624 13.125 0 8.3984375-3.554687 13.125-9.140624 13.125zM502.625 98.671875V77.96875h.234375c2.226563 4.7265625 6.914063 7.6953125 13.007813 7.6953125 10.46875 0 16.953124-8.125 16.953124-21.6015625 0-13.515625-6.523437-21.6015625-17.148437-21.6015625-6.054687 0-10.703125 3.046875-12.96875 7.96875h-.234375V43.125h-11.25v55.546875H502.625zm9.21875-22.1875c-5.585938 0-9.257812-4.84375-9.257812-12.421875 0-7.5 3.671874-12.4609375 9.257812-12.4609375 5.703125 0 9.296875 4.8828125 9.296875 12.4609375 0 7.6171875-3.59375 12.421875-9.296875 12.421875zm48.9375 9.4140625c10.351562 0 17.851562-5.5078125 19.101562-13.7109375h-10.46875c-1.054687 3.203125-4.257812 5.2734375-8.4375 5.2734375-5.820312 0-9.609374-4.1015625-9.609374-10.078125v-.703125h28.867187V63.203125c0-12.734375-7.695313-20.9765625-19.882813-20.9765625-12.382812 0-20.195312 8.671875-20.195312 22.03125 0 13.3984375 7.734375 21.640625 20.625 21.640625zM569.257812 59.6875h-17.773437c.390625-5.234375 3.984375-9.0234375 8.984375-9.0234375 5.078125 0 8.554688 3.671875 8.789062 9.0234375zM600.5 85V61.6015625c0-5.8984375 3.28125-9.3359375 8.90625-9.3359375 1.640625 0 3.203125.2734375 4.140625.6640625V42.890625c-.78125-.234375-1.914063-.4296875-3.242187-.4296875-4.921876 0-8.476563 2.890625-9.960938 8.203125h-.234375V43.125H589.09375V85H600.5zm37.921875.8984375c10.78125 0 18.320313-5.4296875 18.320313-13.671875 0-6.1328125-3.59375-9.5703125-12.34375-11.40625L637.25 59.296875c-4.21875-.8984375-5.78125-2.34375-5.78125-4.4921875 0-2.7734375 2.617188-4.5703125 6.5625-4.5703125 4.21875 0 6.757812 2.3046875 7.109375 5.703125h10.507813c-.234376-8.203125-6.875-13.7109375-17.617188-13.7109375-10.664062 0-17.539062 5.234375-17.539062 13.203125 0 6.2890625 4.101562 10.3515625 12.1875 12.0703125l7.148437 1.484375c4.101563.9375 5.546875 2.1875 5.546875 4.4140625 0 2.734375-2.65625 4.4921875-6.953125 4.4921875-4.53125 0-7.148437-1.953125-7.851563-5.625H619.4375c.742188 8.2421875 7.421875 13.6328125 18.984375 13.6328125zM260.132812 165v-9.765625h-24.648437v-46.601563H223.6875V165h36.445312zm27.53125.898438c10.351563 0 17.851563-5.507813 19.101563-13.710938h-10.46875c-1.054687 3.203125-4.257813 5.273438-8.4375 5.273438-5.820313 0-9.609375-4.101563-9.609375-10.078126v-.703124h28.867188v-3.476563c0-12.734375-7.695313-20.976563-19.882813-20.976563-12.382813 0-20.195313 8.671876-20.195313 22.03125 0 13.398438 7.734376 21.640626 20.625 21.640626zm8.476563-26.210938h-17.773437c.390624-5.234375 3.984374-9.023438 8.984374-9.023438 5.078126 0 8.554688 3.671876 8.789063 9.023438zm32.257813 25.976562c5.234374 0 10.429687-2.617187 12.773437-7.070312h.234375V165h11.015625v-28.789062c0-8.4375-6.992187-13.984376-17.734375-13.984376-11.09375 0-18.007812 5.585938-18.4375 13.710938h10.429688c.546874-3.085938 3.242187-5.195312 7.5-5.195312 4.296874 0 7.03125 2.265624 7.03125 6.171874v2.773438l-10.546876.625c-10.429687.625-16.289062 5.039062-16.289062 12.65625 0 7.539062 6.054688 12.695312 14.023438 12.695312zm3.75-8.242187c-3.867188 0-6.445313-1.953125-6.445313-5.078125 0-2.96875 2.421875-4.882812 6.679687-5.195312l8.828126-.546876v3.046876c0 4.53125-4.101563 7.773437-9.0625 7.773437zm46.164062 8.242187c6.171875 0 11.015625-3.242187 13.046875-7.851562h.195313V165h11.25v-56.367188h-11.40625V130.3125h-.234376c-2.03125-4.648438-6.71875-7.851562-12.773437-7.851562-10.507813 0-17.148437 8.242187-17.148437 21.523437 0 13.398437 6.601562 21.679687 17.070312 21.679687zm3.867188-9.179687c-5.742188 0-9.257813-4.726563-9.257813-12.421875 0-7.65625 3.515625-12.460938 9.257813-12.460938 5.664062 0 9.296874 4.84375 9.296874 12.460938 0 7.65625-3.632812 12.421875-9.296874 12.421875zm50.34375 9.414063c10.351562 0 17.851562-5.507813 19.101562-13.710938h-10.46875c-1.054688 3.203125-4.257812 5.273438-8.4375 5.273438-5.820312 0-9.609375-4.101563-9.609375-10.078126v-.703124h28.867187v-3.476563c0-12.734375-7.695312-20.976563-19.882812-20.976563-12.382812 0-20.195312 8.671876-20.195312 22.03125 0 13.398438 7.734374 21.640626 20.625 21.640626zM441 139.6875h-17.773438c.390626-5.234375 3.984376-9.023438 8.984376-9.023438 5.078124 0 8.554687 3.671876 8.789062 9.023438zM472.242188 165v-23.398438c0-5.898437 3.28125-9.335937 8.90625-9.335937 1.640624 0 3.203124.273437 4.140624.664063v-10.039063c-.78125-.234375-1.914062-.429687-3.242187-.429687-4.921875 0-8.476563 2.890624-9.960937 8.203124h-.234376V123.125h-11.015624V165h11.40625zm45.578124.664062c10.546876 0 16.992188-8.125 16.992188-21.601562 0-13.515625-6.484375-21.601562-17.03125-21.601562-5.976562 0-10.625 2.96875-12.929688 7.929687h-.234374v-21.757813h-11.40625V165h11.25v-7.1875h.234374c2.304688 4.882812 6.992188 7.851562 13.125 7.851562zm-3.945312-9.179687c-5.546875 0-9.296875-4.84375-9.296875-12.421875 0-7.5 3.789063-12.460938 9.296875-12.460938 5.664062 0 9.257812 4.84375 9.257812 12.460938 0 7.65625-3.554687 12.421875-9.257812 12.421875zm49.054688 9.414063c12.65625 0 20.742187-8.085938 20.742187-21.875 0-13.59375-8.203125-21.796876-20.742187-21.796876-12.539063 0-20.742188 8.242188-20.742188 21.796876 0 13.75 8.085938 21.875 20.742188 21.875zm0-8.710938c-5.625 0-9.179688-4.726562-9.179688-13.125 0-8.320312 3.632812-13.125 9.179688-13.125 5.546874 0 9.140624 4.804688 9.140624 13.125 0 8.398438-3.554687 13.125-9.140624 13.125zm42.023437 8.476562c5.234375 0 10.429687-2.617187 12.773437-7.070312h.234376V165h11.015624v-28.789062c0-8.4375-6.992187-13.984376-17.734374-13.984376-11.09375 0-18.007813 5.585938-18.4375 13.710938h10.429687c.546875-3.085938 3.242187-5.195312 7.5-5.195312 4.296875 0 7.03125 2.265624 7.03125 6.171874v2.773438l-10.546875.625c-10.429688.625-16.289062 5.039062-16.289062 12.65625 0 7.539062 6.054687 12.695312 14.023437 12.695312zm3.75-8.242187c-3.867187 0-6.445313-1.953125-6.445313-5.078125 0-2.96875 2.421876-4.882812 6.679688-5.195312l8.828125-.546876v3.046876c0 4.53125-4.101563 7.773437-9.0625 7.773437zM650.726562 165v-23.398438c0-5.898437 3.28125-9.335937 8.90625-9.335937 1.640626 0 3.203126.273437 4.140626.664063v-10.039063c-.78125-.234375-1.914063-.429687-3.242188-.429687-4.921875 0-8.476562 2.890624-9.960938 8.203124h-.234374V123.125h-11.015626V165h11.40625zm34.875.664062c6.171876 0 11.015626-3.242187 13.046876-7.851562h.195312V165h11.25v-56.367188H698.6875V130.3125h-.234375c-2.03125-4.648438-6.71875-7.851562-12.773437-7.851562-10.507813 0-17.148438 8.242187-17.148438 21.523437 0 13.398437 6.601562 21.679687 17.070312 21.679687zm3.867188-9.179687c-5.742188 0-9.257812-4.726563-9.257812-12.421875 0-7.65625 3.515624-12.460938 9.257812-12.460938 5.664062 0 9.296875 4.84375 9.296875 12.460938 0 7.65625-3.632813 12.421875-9.296875 12.421875z"/></g></svg>
